assets/calicon.svg

<?xml version="1.0" encoding="iso-8859-1"?>
<!-- Generator: Adobe Illustrator 19.0.0, SVG Export Plug-In . SVG Version: 6.00 Build 0)  -->
<svg version="1.1" id="Layer_1" xmlns="http://www.w3.org/2000/svg" xmlns:xlink="http://www.w3.org/1999/xlink" x="0px" y="0px"
	 viewBox="0 0 512 512" style="enable-background:new 0 0 512 512;" xml:space="preserve">
<g transform="translate(1 1)">
	<path style="fill:#63D3FD;" d="M511,255H268.017V12.017h190.915c28.637,0,52.068,23.431,52.068,52.068V255z"/>
	<path style="fill:#FFE100;" d="M268.017,255H511v190.915c0,28.637-23.431,52.068-52.068,52.068H268.017V255z"/>
	<path style="fill:#3DB9F9;" d="M493.644,255H250.661V12.017h190.915c28.637,0,52.068,23.431,52.068,52.068V255z"/>
	<path style="fill:#63D3FD;" d="M467.61,255H250.661V12.017h164.881c28.637,0,52.068,23.431,52.068,52.068V255z"/>
	<path style="fill:#FFFFFF;" d="M7.678,255h242.983v242.983H59.746c-28.637,0-52.068-23.431-52.068-52.068V255z"/>
	<path style="fill:#63D3FD;" d="M33.712,255h216.949v242.983H85.78c-28.637,0-52.068-23.431-52.068-52.068V255z"/>
	<path style="fill:#FFFFFF;" d="M250.661,255H7.678V64.085c0-28.637,23.431-52.068,52.068-52.068h190.915V255z"/>
	<path style="fill:#FFE100;" d="M250.661,255H33.712V64.085c0-28.637,23.431-52.068,52.068-52.068h164.881V255z"/>
	<path style="fill:#FFA800;" d="M250.661,255h242.983v190.915c0,28.637-23.431,52.068-52.068,52.068H250.661V255z"/>
	<path style="fill:#FFE100;" d="M250.661,255H467.61v190.915c0,28.637-23.431,52.068-52.068,52.068H250.661V255z"/>
	<path d="M493.644,263.678H250.661c-5.207,0-8.678-3.471-8.678-8.678V12.017c0-5.207,3.471-8.678,8.678-8.678h190.915
		c33.844,0,60.746,26.902,60.746,60.746V255C502.322,260.207,498.851,263.678,493.644,263.678z M259.339,246.322h225.627V64.085
		c0-24.298-19.092-43.39-43.39-43.39H259.339V246.322z"/>
	<path d="M250.661,263.678H7.678C2.471,263.678-1,260.207-1,255V64.085C-1,30.241,25.902,3.339,59.746,3.339h190.915
		c5.207,0,8.678,3.471,8.678,8.678V255C259.339,260.207,255.868,263.678,250.661,263.678z M16.356,246.322h225.627V20.695H59.746
		c-24.298,0-43.39,19.092-43.39,43.39V246.322z"/>
	<path d="M441.576,506.661H250.661c-5.207,0-8.678-3.471-8.678-8.678V255c0-5.207,3.471-8.678,8.678-8.678h242.983
		c5.207,0,8.678,3.471,8.678,8.678v190.915C502.322,479.759,475.42,506.661,441.576,506.661z M259.339,489.305h182.237
		c24.298,0,43.39-19.092,43.39-43.39V263.678H259.339V489.305z"/>
	<path d="M250.661,506.661H59.746C25.902,506.661-1,479.759-1,445.915V255c0-5.207,3.471-8.678,8.678-8.678h242.983
		c5.207,0,8.678,3.471,8.678,8.678v242.983C259.339,503.19,255.868,506.661,250.661,506.661z M16.356,263.678v182.237
		c0,24.298,19.092,43.39,43.39,43.39h182.237V263.678H16.356z"/>
	<path d="M129.169,194.254c-5.207,0-8.678-3.471-8.678-8.678V81.441c0-5.207,3.471-8.678,8.678-8.678s8.678,3.471,8.678,8.678
		v104.136C137.847,190.783,134.376,194.254,129.169,194.254z"/>
	<path d="M181.237,142.186H77.102c-5.207,0-8.678-3.471-8.678-8.678c0-5.207,3.471-8.678,8.678-8.678h104.136
		c5.207,0,8.678,3.471,8.678,8.678C189.915,138.715,186.444,142.186,181.237,142.186z"/>
	<path d="M85.78,428.559c-2.603,0-4.339-0.868-6.075-2.603c-3.471-3.471-3.471-8.678,0-12.149l86.78-86.78
		c3.471-3.471,8.678-3.471,12.149,0c3.471,3.471,3.471,8.678,0,12.149l-86.78,86.78C90.119,427.692,88.383,428.559,85.78,428.559z"
		/>
	<path d="M172.559,428.559c-2.603,0-4.339-0.868-6.075-2.603l-86.78-86.78c-3.471-3.471-3.471-8.678,0-12.149
		c3.471-3.471,8.678-3.471,12.149,0l86.78,86.78c3.471,3.471,3.471,8.678,0,12.149C176.898,427.692,175.163,428.559,172.559,428.559
		z"/>
	<path d="M424.22,142.186H320.085c-5.207,0-8.678-3.471-8.678-8.678c0-5.207,3.471-8.678,8.678-8.678H424.22
		c5.207,0,8.678,3.471,8.678,8.678C432.898,138.715,429.427,142.186,424.22,142.186z"/>
	<path d="M424.22,411.203H320.085c-5.207,0-8.678-3.471-8.678-8.678s3.471-8.678,8.678-8.678H424.22
		c5.207,0,8.678,3.471,8.678,8.678S429.427,411.203,424.22,411.203z"/>
	<path d="M424.22,359.136H320.085c-5.207,0-8.678-3.471-8.678-8.678c0-5.207,3.471-8.678,8.678-8.678H424.22
		c5.207,0,8.678,3.471,8.678,8.678C432.898,355.664,429.427,359.136,424.22,359.136z"/>
</g>
<g>
</g>
<g>
</g>
<g>
</g>
<g>
</g>
<g>
</g>
<g>
</g>
<g>
</g>
<g>
</g>
<g>
</g>
<g>
</g>
<g>
</g>
<g>
</g>
<g>
</g>
<g>
</g>
<g>
</g>
</svg>

<?xml version="1.0" encoding="utf-8"?>
<svg viewBox="0 0 512 512" style="enable-background:new 0 0 512 512;" xmlns="http://www.w3.org/2000/svg">
  <g transform="matrix(1, 0, 0, 1, 1, 1)">
    <g transform="matrix(1.017241, 0, 0, 1.017241, 0.017241, -4.396569)">
      <path style="fill: rgb(99, 211, 253);" d="M 499.072 255 L 268.017 255 L 268.017 12.017 L 449.56 12.017 C 476.791 12.017 499.072 35.448 499.072 64.085 L 499.072 255 Z"/>
      <path style="fill: rgb(255, 225, 0);" d="M 268.017 255 L 499.072 255 L 499.072 445.915 C 499.072 474.552 476.791 497.983 449.56 497.983 L 268.017 497.983 L 268.017 255 Z"/>
      <path style="fill:#3DB9F9;" d="M 493.644 255 L 250.661 255 L 250.661 12.017 L 441.576 12.017 C 470.213 12.017 493.644 35.448 493.644 64.085 L 493.644 255 Z"/>
      <path style="fill:#63D3FD;" d="M 467.61 255 L 250.661 255 L 250.661 12.017 L 415.542 12.017 C 444.179 12.017 467.61 35.448 467.61 64.085 L 467.61 255 Z"/>
      <path style="fill:#FFFFFF;" d="M 7.678 255 L 250.661 255 L 250.661 497.983 L 59.746 497.983 C 31.109 497.983 7.678 474.552 7.678 445.915 L 7.678 255 L 7.678 255 Z"/>
      <path style="fill: rgb(99, 211, 253);" d="M 3.432 255 L 250.661 255 L 250.661 497.983 L 62.768 497.983 C 30.134 497.983 3.432 474.552 3.432 445.915 L 3.432 255 Z"/>
      <path style="fill:#FFFFFF;" d="M 250.661 255 L 7.678 255 L 7.678 64.085 C 7.678 35.448 31.109 12.017 59.746 12.017 L 250.661 12.017 L 250.661 255 Z"/>
      <path style="fill: rgb(255, 225, 0);" d="M 250.661 255 L 3.432 255 L 3.432 64.085 C 3.432 35.448 30.134 12.017 62.768 12.017 L 250.661 12.017 L 250.661 255 Z"/>
      <path style="fill:#FFA800;" d="M 250.661 255 L 493.644 255 L 493.644 445.915 C 493.644 474.552 470.213 497.983 441.576 497.983 L 250.661 497.983 L 250.661 255 Z"/>
      <path style="fill:#FFE100;" d="M 250.661 255 L 467.61 255 L 467.61 445.915 C 467.61 474.552 444.179 497.983 415.542 497.983 L 250.661 497.983 L 250.661 255 Z"/>
      <path d="M 493.644 263.678 L 250.661 263.678 C 245.454 263.678 241.983 260.207 241.983 255 L 241.983 12.017 C 241.983 6.81 245.454 3.339 250.661 3.339 L 441.576 3.339 C 475.42 3.339 502.322 30.241 502.322 64.085 L 502.322 255 C 502.322 260.207 498.851 263.678 493.644 263.678 Z M 259.339 246.322 L 484.966 246.322 L 484.966 64.085 C 484.966 39.787 465.874 20.695 441.576 20.695 L 259.339 20.695 L 259.339 246.322 Z"/>
      <path d="M 250.661 263.678 L 7.678 263.678 C 2.471 263.678 -1 260.207 -1 255 L -1 64.085 C -1 30.241 25.902 3.339 59.746 3.339 L 250.661 3.339 C 255.868 3.339 259.339 6.81 259.339 12.017 L 259.339 255 C 259.339 260.207 255.868 263.678 250.661 263.678 Z M 16.356 246.322 L 241.983 246.322 L 241.983 20.695 L 59.746 20.695 C 35.448 20.695 16.356 39.787 16.356 64.085 L 16.356 246.322 Z"/>
      <path d="M 441.576 506.661 L 250.661 506.661 C 245.454 506.661 241.983 503.19 241.983 497.983 L 241.983 255 C 241.983 249.793 245.454 246.322 250.661 246.322 L 493.644 246.322 C 498.851 246.322 502.322 249.793 502.322 255 L 502.322 445.915 C 502.322 479.759 475.42 506.661 441.576 506.661 Z M 259.339 489.305 L 441.576 489.305 C 465.874 489.305 484.966 470.213 484.966 445.915 L 484.966 263.678 L 259.339 263.678 L 259.339 489.305 Z"/>
      <path d="M 250.661 506.661 L 59.746 506.661 C 25.902 506.661 -1 479.759 -1 445.915 L -1 255 C -1 249.793 2.471 246.322 7.678 246.322 L 250.661 246.322 C 255.868 246.322 259.339 249.793 259.339 255 L 259.339 497.983 C 259.339 503.19 255.868 506.661 250.661 506.661 Z M 16.356 263.678 L 16.356 445.915 C 16.356 470.213 35.448 489.305 59.746 489.305 L 241.983 489.305 L 241.983 263.678 L 16.356 263.678 Z"/>
      <path d="M 129.169 194.254 C 123.962 194.254 120.491 190.783 120.491 185.576 L 120.491 81.441 C 120.491 76.234 123.962 72.763 129.169 72.763 C 134.376 72.763 137.847 76.234 137.847 81.441 L 137.847 185.577 C 137.847 190.783 134.376 194.254 129.169 194.254 Z"/>
      <path d="M 181.237 142.186 L 77.102 142.186 C 71.895 142.186 68.424 138.715 68.424 133.508 C 68.424 128.301 71.895 124.83 77.102 124.83 L 181.238 124.83 C 186.445 124.83 189.916 128.301 189.916 133.508 C 189.915 138.715 186.444 142.186 181.237 142.186 Z"/>
      <path d="M 85.78 428.559 C 83.177 428.559 81.441 427.691 79.705 425.956 C 76.234 422.485 76.234 417.278 79.705 413.807 L 166.485 327.027 C 169.956 323.556 175.163 323.556 178.634 327.027 C 182.105 330.498 182.105 335.705 178.634 339.176 L 91.854 425.956 C 90.119 427.692 88.383 428.559 85.78 428.559 Z"/>
      <path d="M 172.559 428.559 C 169.956 428.559 168.22 427.691 166.484 425.956 L 79.704 339.176 C 76.233 335.705 76.233 330.498 79.704 327.027 C 83.175 323.556 88.382 323.556 91.853 327.027 L 178.633 413.807 C 182.104 417.278 182.104 422.485 178.633 425.956 C 176.898 427.692 175.163 428.559 172.559 428.559 Z"/>
      <path d="M 424.22 142.186 L 320.085 142.186 C 314.878 142.186 311.407 138.715 311.407 133.508 C 311.407 128.301 314.878 124.83 320.085 124.83 L 424.22 124.83 C 429.427 124.83 432.898 128.301 432.898 133.508 C 432.898 138.715 429.427 142.186 424.22 142.186 Z"/>
      <path d="M 424.22 411.203 L 320.085 411.203 C 314.878 411.203 311.407 407.732 311.407 402.525 C 311.407 397.318 314.878 393.847 320.085 393.847 L 424.22 393.847 C 429.427 393.847 432.898 397.318 432.898 402.525 C 432.898 407.732 429.427 411.203 424.22 411.203 Z"/>
      <path d="M 424.22 359.136 L 320.085 359.136 C 314.878 359.136 311.407 355.665 311.407 350.458 C 311.407 345.251 314.878 341.78 320.085 341.78 L 424.22 341.78 C 429.427 341.78 432.898 345.251 432.898 350.458 C 432.898 355.664 429.427 359.136 424.22 359.136 Z"/>
    </g>
  </g>
  <g/>
  <g/>
  <g/>
  <g/>
  <g/>
  <g/>
  <g/>
  <g/>
  <g/>
  <g/>
  <g/>
  <g/>
  <g/>
  <g/>
  <g/>
</svg>
